X: 41157
T: Tripping O'er The Bogs
R: jig
M: 6/8
K: Amixolydian
ABA c2A|G2E DEG|ABA c2A|Bdc AB2|
ABA c2d|e2d- ded|cBA B2A|G2E DEG|
ABA c2A|G2E DEG|ABA c2A|Bdc AB2|
ABA c2d|e2d- ded|cde g2e|a3 a3||
|:a3 g2a|f2d- dBd|gfe fed|e2c- cA2|
G2A c2d|e2d- ded|cBA B2A|1 GAB deg:|2 G2E DEG||


